svgs/sharp-duotone-thin/hourglass.svg

<svg xmlns="http://www.w3.org/2000/svg" viewBox="0 0 384 512"><!--! Font Awesome Pro 7.1.0 by @fontawesome - https://fontawesome.com License - https://fontawesome.com/license (Commercial License) Copyright 2025 Fonticons, Inc. --><path opacity=".4" fill="currentColor" d="M48 16L48 140 192 246.1 336 140 336 16 48 16zm0 356l0 124 288 0 0-124-144-106.1-144 106.1z"/><path fill="currentColor" d="M8 0l-8 0 0 16 32 0 0 132 3.3 2.4 143.3 105.6-143.3 105.6-3.3 2.4 0 132-32 0 0 16 384 0 0-16-32 0 0-132-3.3-2.4-143.3-105.6 143.3-105.6 3.3-2.4 0-132 32 0 0-16-376 0zM336 16L336 140 192 246.1 48 140 48 16 336 16zM192 265.9l144 106.1 0 124-288 0 0-124 144-106.1z"/></svg>

<svg xmlns="http://www.w3.org/2000/svg" viewBox="0 0 384 512"><!--! Font Awesome Pro 6.7.2 by @fontawesome - https://fontawesome.com License - https://fontawesome.com/license (Commercial License) Copyright 2024 Fonticons, Inc. --><defs><style>.fa-secondary{opacity:.4}</style></defs><path class="fa-secondary" d="M48 16l0 124L192 246.1 336 140l0-124L48 16zm0 356l0 124 288 0 0-124L192 265.9 48 372z"/><path class="fa-primary" d="M8 0L0 0 0 16l8 0 24 0 0 128 0 4 3.3 2.4L178.5 256 35.3 361.6 32 364l0 4 0 128L8 496l-8 0 0 16 8 0 368 0 8 0 0-16-8 0-24 0 0-128 0-4-3.3-2.4L205.5 256 348.7 150.4 352 148l0-4 0-128 24 0 8 0 0-16-8 0L8 0zM336 16l0 124L192 246.1 48 140 48 16l288 0zM192 265.9L336 372l0 124L48 496l0-124L192 265.9z"/></svg>
